icons/editor/text-align/justify.svg

<svg width="32" height="32" viewBox="0 0 32 32" xmlns="http://www.w3.org/2000/svg">
    <path fill-rule="evenodd" d="M6 8h20V6H6v2zm0 6h20v-2H6v2zm20 6H6v-2h20v2zM6 26h20v-2H6v2z"/>
</svg>

<svg width="32" height="32" viewBox="0 0 32 32" fill="none" xmlns="http://www.w3.org/2000/svg">
<path fill-rule="evenodd" clip-rule="evenodd" d="M6 8H26V6H6V8ZM6 14H26V12H6V14ZM26 20H6V18H26V20ZM6 26H26V24H6V26Z" fill="black"/>
</svg>
